X:1 
T:A_past_and_future_secret.Instr:Flute
C:Blind Guardian/Modified and Transcribed by Achazia 
N: 
Q:1/4=80 
V:1 
M:4/4 
L:1/8 
K:C
z8 |z8 |z8 |z8 |z8 |z8 |EE EE D2 G2 |G^F D2 E4- |E4 z4 |z3 D E2 G2 |^FE DD DE F2 |G4 E4 |^F8 |G4 E3 ^F/G/ |^F8 |G4 E3 ^F/G/ |^F3 F G2 F2 |E8 |z8 |z8 |z8 |E/EE BA G3/2 ^F/E/D |E/E/E/E/ EE D^F E2 |B/B/B/B/ BB dA BB |
GG/G/ GG D^F E2 |B/B/B/B/ Bd dc BA |G/G/G/G/ GG/G/ D^F E2 |B/B/B/B/ BB dA B/c/B |z B BB dd BA |c8 |z3/2 D/ ^FF F/G/F DF |G4 z4 |z8 |G4 E3 ^F/G/ |^F8 |G4 E3 ^F/G/ |^F2 FF GF DE |G4 E3 ^F/G/ |^F2 FF GF D/E/F |
E8 |z8 |z8 |z8 |z8 |z8 |E2 E2 D2 GG |^F/G/F DF GF ED |E3 E B,4- |B,3 D E2 EE |D2 GG ^F/G/F DF |G^F ED E3 E |B,6 d^f |g2 ^f2 d3 e |^fe f2 g4- |g4 z4 |z4 G4 |E3 ^F/G/ F4- |^F4 G4 |E3 ^F/G/ F4- |^F4 G4 |
E3 ^F/G/ F2 FF |G^F EF G4 |E3 ^F/G/ F2 FF |G^F EF G4 |E3 ^F/G/ F3 F |G2 ^F2 E4- |E4 z4 |]
